X:1
T:Old Woman From Wexford
M:6/8
L:1/8
K:C
 E| GGG GGG| G3 C2 D| E2 E F2 D| C3- C2 E| G2 G G2 E| F2 G A2 c| BGG G2 D|\
 F3 E2 F| GGG G2 G| G2 F E2 F| G2 C C2 C| C3- C2||
